X:0200
M:6/8
L:1/8
Q:3/8=120
K:A Dorian % Aird has it as mixolydian
E   |ABA ABd|(e/f/g)B A2c|BAB GAB|BAB G2
f/g/|a2A ABA| a2A     A2f|g2G GAG|BAB G2

